!!!ONB: MCCC : IMC0038_02 : Extracted Monophonic Melody
!!!COM: Clementi, Muzio
!!!OPR: 6 Sonatinas
!!!OMV: 2
!!!SCT: Op.36
!!!ODT: 1797///
**kern
*thru
*staff1
*Ipiano
*clefG2
*k[]
*C:
*M3/4
*MM110
=1
8.e
16g
8.cc
16a
8.g
16f
=2
8.e
16g
8.cc
16a
8.g
16f
=3
8.e
16g
8.a
16f
8.d
16c
=4
8.B
16d
4c
4r
=5
2f
4e
=6
2f
4e
=7
8.A
16d
8.G
16c
8.F
16B
=8
2d
4c
=9
8.e
16ee
8.dd
16b
8.cc
16a
=10
8.g#
16b
8.e
16g#
8.a
16cc
=11
8.d
16dd
8.cc
16a
8.b
16g
=12
8.f#
16dd
8.g
16dd
8.a
16dd
=13
8.b
16gg
8.cc
16gg
8.dd
16gg
=14
8.ee
16bb
8.ff#
16aa
8.gg
16dd
=15
8.dd
16cc
4b
4a
=16
4g
4f#
4f#
=17
8.e
16g
8.cc
16a
8.g
16f
=18
8.e
16g
8.cc
16a
8.g
16f
=19
8.e
16g
8.a
16f
8.d
16c
=20
8.B
16d
4c
4r
=21
2f
4e
=22
2f
4e
=23
8.A
16d
8.G
16c
8.F
16B
=24
8.c
16cc
8.b
16a
8.g
16f#
=25
2f
4e
=26
2f
4e
=27
8.A
16d
8.G
16c
8.F
16B
=28
2d
4c
==
*-
